X:1
T:Quickstep [6]
T:Quickstep [6]
T:Niel Gow
C:Niel Gow
L:1/8
M:2/4
K:C
V:1 treble 
V:1
 G | c/B/c/d/ CG | c/B/c/d/ cG | Af/e/ f/e/d/c/ | ed de/d/ | c/B/c/d/ cG | c/B/c/d/ cG | %7
{FG} A>G F>E | GC C :: e/f/ | g>a g>e | c>d c>G | Af/e/ f/e/d/c/ | ed d e/f/ | g>a ge | c>d cG | %16
{FG} A>G F>E | GC Ce/f/ | g>a g>e | c>d c>G | Af/e/ f/e/d/c/ | ed d e/d/ | c/B/c/c/ d/ cG | %23
 c/B/c/d/ CG |{FG} A>G F>E | GC C || %26

